X:128
T:AIR XIX. Johny, Lad, cock up your Beaver.
O:england
B:Joseph Mitchell: "The Highland Fair" (1731)
M:6/4
L:1/4
K:F
d/d/|ccF          A>GF|GAG B2d|c2B A2G   |Ffc A>Bc     |
dcd          fcA |GAG B2f|c2B AAA/G/|Ffc A2 A     |
B/A/B/c/d/e/ fFA |GAG B2f|c2B A2G   |Ffc A2(G/F/)|]


